!! 00000] TT[WS
!!!OTL: Jianli minbin
!!!ARE: Asia, China, Shanxi Datong
!! Ethnic Group: Han
!! WII, 225 (2)
!!!SCT: J0735
!!!YEM: Copyright 1995, estate of Helmut Schaffrath.
**kern
*ICvox
*Ivox
*M2/4
*k[f#]
*G:
{8dd
8dd
8dd
8a
=1
4.dd
8ee
=2
8cc
8b
8dd
8a
=3
2g}
=4
{8a
8a
8dd
16b
16dd
=5
8.a
16a
4dd
=6
8g
8g
8A
8e
=7
2d}
==
!!!AGN: Xiaodiao. XÅshi, Xinminge
!!!ONB: ESAC (Essen Associative Code) Database: CHINA
!!!AMT: simple duple
!!!AIN: vox
!!!EED: Helmut Schaffrath
!!!EEV: 1.0
*-
